X: 976
T: The hunt
C: anon.
O: Ireland
B: Francis O'Neill: "The Dance Music of Ireland" (1907) no. 976
R: Long dance, set dance
Z: Transcribed by Frank Nordberg - http://www.musicaviva.com
F: http://www.musicaviva.com/abc/tunes/ireland/oneill-1001/oneill-1001-097
6.abc
m: Tn2 = (3n/o/n/ m/n/
M: C|
L: 1/8
K: G
D2|GABG AGEG|Tc2(ce) dcBA|GABA GEDG|EAAG AcBA|GABG AGEG|Tc2(ce) dcBA|GABA
 GEDE|G2GGG2::D2|GABc d2(de)|
=f2f2f2(ed)|e2e2efge|d2ded2(cB)|cBcd edcB|A2ABA2G2|g2g2gedB|A2AB A2(GE)
|GABG AGEG|Tc2(ce) dcBA|GABA GEDE|G2GGG2:|
W:
W:
W: From Musica Viva - http://www.musicaviva.com
W: the Internet center for free sheet music downloads.


